icons/sst.svg

<!--
  - The MIT License (MIT)
  -
  - Copyright (c) 2015-2024 Elior "Mallowigi" Boukhobza
  -
  - Permission is hereby granted, free of charge, to any person obtaining a copy
  - of this software and associated documentation files (the "Software"), to deal
  - in the Software without restriction, including without limitation the rights
  - to use, copy, modify, merge, publish, distribute, sublicense, and/or sell
  - copies of the Software, and to permit persons to whom the Software is
  - furnished to do so, subject to the following conditions:
  -
  - The above copyright notice and this permission notice shall be included in all
  - copies or substantial portions of the Software.
  -
  - THE SOFTWARE IS PROVIDED "AS IS", WITHOUT WARRANTY OF ANY KIND, EXPRESS OR
  - IMPLIED, INCLUDING BUT NOT LIMITED TO THE WARRANTIES OF MERCHANTABILITY,
  - FITNESS FOR A PARTICULAR PURPOSE AND NONINFRINGEMENT. IN NO EVENT SHALL THE
  - AUTHORS OR COPYRIGHT HOLDERS BE LIABLE FOR ANY CLAIM, DAMAGES OR OTHER
  - LIABILITY, WHETHER IN AN ACTION OF CONTRACT, TORT OR OTHERWISE, ARISING FROM,
  - OUT OF OR IN CONNECTION WITH THE SOFTWARE OR THE USE OR OTHER DEALINGS IN THE
  - SOFTWARE.
  -
  -->

<svg  width="16px" height="16px" viewBox="0 0 24 24" fill="none" xmlns="http://www.w3.org/2000/svg">
  <defs>
    <mask id="Mask">
      <path
          d="M7.32561 16.3091C7.33977 16.2881 7.34135 16.2609 7.32947 16.2382C7.3236 16.2273 7.31487 16.2181 7.3042 16.2117C7.29353 16.2053 7.28132 16.2019 7.26889 16.202H3.25765C3.09241 16.2019 2.9288 16.1692 2.77616 16.1058C2.62352 16.0424 2.48485 15.9494 2.36806 15.8322C2.25127 15.715 2.15865 15.5759 2.0955 15.4229C2.03235 15.2698 1.9999 15.1058 2 14.9401L2.0048 9.08669C2.00503 8.83929 2.06974 8.59624 2.19251 8.38163L4.33537 4.63787C4.44629 4.44403 4.60628 4.28298 4.79917 4.17097C4.99207 4.05897 5.21103 4 5.43395 4H18.4365C18.5709 4 18.7028 4.03606 18.8186 4.10444C18.9343 4.17281 19.0297 4.27101 19.0948 4.38883C19.1599 4.50665 19.1924 4.6398 19.1888 4.77444C19.1853 4.90909 19.1458 5.04032 19.0746 5.15452C18.592 5.92795 17.9897 6.89351 17.6763 7.39557C17.6554 7.42909 17.6437 7.46762 17.6427 7.50716C17.6416 7.5467 17.6511 7.58581 17.6702 7.62042C17.6894 7.65503 17.7174 7.68387 17.7514 7.70395C17.7854 7.72403 17.8241 7.73462 17.8636 7.73461H21.0317C21.6437 7.73461 22.14 8.2321 22.14 8.84575V14.4614C22.14 15.089 21.9814 15.7063 21.679 16.2558C21.2979 16.948 20.6795 17.9288 20.2896 18.6372C20.1398 18.9094 19.9199 19.1364 19.6528 19.2944C19.3857 19.4525 19.0813 19.5359 18.7711 19.5359H6.56785C6.43059 19.5359 6.29593 19.4984 6.17832 19.4275C6.06071 19.3566 5.9646 19.2549 5.90031 19.1333C5.83602 19.0117 5.80599 18.8749 5.81343 18.7375C5.82087 18.6001 5.86552 18.4674 5.94256 18.3535L7.32561 16.3091Z"
          fill="white"/>
      <path
          d="M9.20634 15.72C9.08059 15.7201 8.95669 15.7504 8.84505 15.8084C8.73342 15.8664 8.63732 15.9505 8.56485 16.0535L6.91321 18.4024C6.88934 18.4365 6.87524 18.4764 6.87245 18.5179C6.86965 18.5594 6.87827 18.6009 6.89736 18.6378C6.91645 18.6747 6.94529 18.7057 6.98072 18.7273C7.01616 18.7489 7.05683 18.7604 7.09832 18.7605H18.489C18.9084 18.7605 19.2958 18.5357 19.505 18.1711C19.8027 17.6519 20.3142 16.8972 20.6208 16.3625C20.6583 16.2973 20.678 16.2234 20.6779 16.1482C20.6778 16.073 20.658 15.9991 20.6204 15.934C20.5828 15.8689 20.5288 15.8148 20.4638 15.7773C20.3988 15.7397 20.3251 15.72 20.2501 15.72H9.20634ZM5.99464 12.45C5.78287 12.4506 5.57402 12.4994 5.38382 12.5928C5.19363 12.6861 5.02707 12.8216 4.89669 12.9888L3.54865 14.7176C3.49815 14.7823 3.46683 14.86 3.45824 14.9417C3.44966 15.0234 3.46417 15.1059 3.50011 15.1797C3.536 15.2537 3.59192 15.316 3.66148 15.3596C3.73104 15.4032 3.81143 15.4263 3.89347 15.4263H7.83068C7.89882 15.2822 8.00635 15.1604 8.14079 15.0752C8.27522 14.9899 8.43102 14.9446 8.5901 14.9446H16.1992C16.5105 14.9446 16.7995 14.7822 16.962 14.516C17.2508 14.0434 17.7122 13.2881 17.9972 12.8213C18.0223 12.7802 18.036 12.7331 18.0369 12.6849C18.0378 12.6367 18.0259 12.5892 18.0023 12.5472C17.9788 12.5052 17.9445 12.4702 17.9029 12.446C17.8614 12.4217 17.8141 12.409 17.7661 12.4092C15.7864 12.416 8.29949 12.4418 5.99464 12.45Z"
          fill="black"/>
      <path
          d="M18.0882 14.3141C18.0494 14.3765 18.028 14.4482 18.0261 14.5218C18.0243 14.5953 18.0421 14.668 18.0778 14.7323C18.1134 14.7966 18.1655 14.8502 18.2288 14.8875C18.292 14.9248 18.3641 14.9445 18.4375 14.9445H20.6455C20.8158 14.9445 20.9792 14.8767 21.0997 14.7559C21.2202 14.6351 21.2879 14.4713 21.2879 14.3004V9.14093C21.2879 9.05804 21.2717 8.97595 21.24 8.89937C21.2084 8.82278 21.162 8.7532 21.1035 8.69458C21.0451 8.63597 20.9757 8.58948 20.8993 8.55777C20.8229 8.52606 20.741 8.50974 20.6583 8.50977H10.3583C9.97197 8.50977 9.61244 8.70772 9.40514 9.03446C9.03971 9.61097 8.61441 10.5296 8.25457 11.097C8.22318 11.1465 8.20563 11.2035 8.20376 11.2621C8.2019 11.3207 8.21577 11.3788 8.24395 11.4302C8.27208 11.4816 8.31349 11.5245 8.36384 11.5544C8.41419 11.5843 8.47164 11.6001 8.53015 11.6H18.3105C18.4554 11.6001 18.5976 11.6389 18.7225 11.7126C18.8473 11.7863 18.9503 11.8921 19.0206 12.019C19.091 12.146 19.1262 12.2895 19.1226 12.4347C19.119 12.5799 19.0768 12.7215 19.0003 12.8448C18.6896 13.3452 18.3449 13.9002 18.0882 14.3141Z"
          fill="black"/>
      <path
          d="M16.2896 7.7345C16.3312 7.73445 16.3722 7.72402 16.4088 7.70413C16.4454 7.68425 16.4765 7.65555 16.4992 7.62062L17.9625 5.37436C17.9905 5.33131 18.0064 5.28147 18.0085 5.2301C18.0106 5.17874 17.9988 5.12777 17.9744 5.08256C17.95 5.03736 17.9139 4.99961 17.8698 4.9733C17.8258 4.94699 17.7754 4.93311 17.7241 4.93311H6.5813C6.4237 4.93307 6.26764 4.96417 6.12203 5.02462C5.97642 5.08507 5.84412 5.17368 5.73269 5.2854C5.62125 5.39712 5.53286 5.52975 5.47257 5.67572C5.41229 5.82169 5.38128 5.97814 5.38132 6.13612V10.3906C5.38132 10.5564 5.41489 10.7205 5.48 10.8729C5.5451 11.0253 5.64038 11.1628 5.76008 11.2772C5.87977 11.3916 6.02138 11.4805 6.17633 11.5384C6.33128 11.5964 6.49635 11.6222 6.66154 11.6143H6.81889C6.82298 11.5804 8.08897 9.38942 8.78773 8.31511C8.90382 8.13678 9.06244 7.9903 9.24923 7.88892C9.43603 7.78754 9.6451 7.73446 9.85751 7.7345H16.2897H16.2896Z"
          fill="black"/>
    </mask>
  </defs>
  <g mask="url(#Mask)">
    <path data-iconColor="SST"
          d="M7.32561 16.3091C7.33977 16.2881 7.34135 16.2609 7.32947 16.2382C7.3236 16.2273 7.31487 16.2181 7.3042 16.2117C7.29353 16.2053 7.28132 16.2019 7.26889 16.202H3.25765C3.09241 16.2019 2.9288 16.1692 2.77616 16.1058C2.62352 16.0424 2.48485 15.9494 2.36806 15.8322C2.25127 15.715 2.15865 15.5759 2.0955 15.4229C2.03235 15.2698 1.9999 15.1058 2 14.9401L2.0048 9.08669C2.00503 8.83929 2.06974 8.59624 2.19251 8.38163L4.33537 4.63787C4.44629 4.44403 4.60628 4.28298 4.79917 4.17097C4.99207 4.05897 5.21103 4 5.43395 4H18.4365C18.5709 4 18.7028 4.03606 18.8186 4.10444C18.9343 4.17281 19.0297 4.27101 19.0948 4.38883C19.1599 4.50665 19.1924 4.6398 19.1888 4.77444C19.1853 4.90909 19.1458 5.04032 19.0746 5.15452C18.592 5.92795 17.9897 6.89351 17.6763 7.39557C17.6554 7.42909 17.6437 7.46762 17.6427 7.50716C17.6416 7.5467 17.6511 7.58581 17.6702 7.62042C17.6894 7.65503 17.7174 7.68387 17.7514 7.70395C17.7854 7.72403 17.8241 7.73462 17.8636 7.73461H21.0317C21.6437 7.73461 22.14 8.2321 22.14 8.84575V14.4614C22.14 15.089 21.9814 15.7063 21.679 16.2558C21.2979 16.948 20.6795 17.9288 20.2896 18.6372C20.1398 18.9094 19.9199 19.1364 19.6528 19.2944C19.3857 19.4525 19.0813 19.5359 18.7711 19.5359H6.56785C6.43059 19.5359 6.29593 19.4984 6.17832 19.4275C6.06071 19.3566 5.9646 19.2549 5.90031 19.1333C5.83602 19.0117 5.80599 18.8749 5.81343 18.7375C5.82087 18.6001 5.86552 18.4674 5.94256 18.3535L7.32561 16.3091Z"
          fill="#FF7043"/>
    <path
        d="M9.20634 15.72C9.08059 15.7201 8.95669 15.7504 8.84505 15.8084C8.73342 15.8664 8.63732 15.9505 8.56485 16.0535L6.91321 18.4024C6.88934 18.4365 6.87524 18.4764 6.87245 18.5179C6.86965 18.5594 6.87827 18.6009 6.89736 18.6378C6.91645 18.6747 6.94529 18.7057 6.98072 18.7273C7.01616 18.7489 7.05683 18.7604 7.09832 18.7605H18.489C18.9084 18.7605 19.2958 18.5357 19.505 18.1711C19.8027 17.6519 20.3142 16.8972 20.6208 16.3625C20.6583 16.2973 20.678 16.2234 20.6779 16.1482C20.6778 16.073 20.658 15.9991 20.6204 15.934C20.5828 15.8689 20.5288 15.8148 20.4638 15.7773C20.3988 15.7397 20.3251 15.72 20.2501 15.72H9.20634ZM5.99464 12.45C5.78287 12.4506 5.57402 12.4994 5.38382 12.5928C5.19363 12.6861 5.02707 12.8216 4.89669 12.9888L3.54865 14.7176C3.49815 14.7823 3.46683 14.86 3.45824 14.9417C3.44966 15.0234 3.46417 15.1059 3.50011 15.1797C3.536 15.2537 3.59192 15.316 3.66148 15.3596C3.73104 15.4032 3.81143 15.4263 3.89347 15.4263H7.83068C7.89882 15.2822 8.00635 15.1604 8.14079 15.0752C8.27522 14.9899 8.43102 14.9446 8.5901 14.9446H16.1992C16.5105 14.9446 16.7995 14.7822 16.962 14.516C17.2508 14.0434 17.7122 13.2881 17.9972 12.8213C18.0223 12.7802 18.036 12.7331 18.0369 12.6849C18.0378 12.6367 18.0259 12.5892 18.0023 12.5472C17.9788 12.5052 17.9445 12.4702 17.9029 12.446C17.8614 12.4217 17.8141 12.409 17.7661 12.4092C15.7864 12.416 8.29949 12.4418 5.99464 12.45Z"
        fill="#FAFAFA"/>
    <path
        d="M18.0882 14.3141C18.0494 14.3765 18.028 14.4482 18.0261 14.5218C18.0243 14.5953 18.0421 14.668 18.0778 14.7323C18.1134 14.7966 18.1655 14.8502 18.2288 14.8875C18.292 14.9248 18.3641 14.9445 18.4375 14.9445H20.6455C20.8158 14.9445 20.9792 14.8767 21.0997 14.7559C21.2202 14.6351 21.2879 14.4713 21.2879 14.3004V9.14093C21.2879 9.05804 21.2717 8.97595 21.24 8.89937C21.2084 8.82278 21.162 8.7532 21.1035 8.69458C21.0451 8.63597 20.9757 8.58948 20.8993 8.55777C20.8229 8.52606 20.741 8.50974 20.6583 8.50977H10.3583C9.97197 8.50977 9.61244 8.70772 9.40514 9.03446C9.03971 9.61097 8.61441 10.5296 8.25457 11.097C8.22318 11.1465 8.20563 11.2035 8.20376 11.2621C8.2019 11.3207 8.21577 11.3788 8.24395 11.4302C8.27208 11.4816 8.31349 11.5245 8.36384 11.5544C8.41419 11.5843 8.47164 11.6001 8.53015 11.6H18.3105C18.4554 11.6001 18.5976 11.6389 18.7225 11.7126C18.8473 11.7863 18.9503 11.8921 19.0206 12.019C19.091 12.146 19.1262 12.2895 19.1226 12.4347C19.119 12.5799 19.0768 12.7215 19.0003 12.8448C18.6896 13.3452 18.3449 13.9002 18.0882 14.3141Z"
        fill="#FAFAFA"/>
    <path
        d="M16.2896 7.7345C16.3312 7.73445 16.3722 7.72402 16.4088 7.70413C16.4454 7.68425 16.4765 7.65555 16.4992 7.62062L17.9625 5.37436C17.9905 5.33131 18.0064 5.28147 18.0085 5.2301C18.0106 5.17874 17.9988 5.12777 17.9744 5.08256C17.95 5.03736 17.9139 4.99961 17.8698 4.9733C17.8258 4.94699 17.7754 4.93311 17.7241 4.93311H6.5813C6.4237 4.93307 6.26764 4.96417 6.12203 5.02462C5.97642 5.08507 5.84412 5.17368 5.73269 5.2854C5.62125 5.39712 5.53286 5.52975 5.47257 5.67572C5.41229 5.82169 5.38128 5.97814 5.38132 6.13612V10.3906C5.38132 10.5564 5.41489 10.7205 5.48 10.8729C5.5451 11.0253 5.64038 11.1628 5.76008 11.2772C5.87977 11.3916 6.02138 11.4805 6.17633 11.5384C6.33128 11.5964 6.49635 11.6222 6.66154 11.6143H6.81889C6.82298 11.5804 8.08897 9.38942 8.78773 8.31511C8.90382 8.13678 9.06244 7.9903 9.24923 7.88892C9.43603 7.78754 9.6451 7.73446 9.85751 7.7345H16.2897H16.2896Z"
        fill="#FAFAFA"/>
  </g>

</svg>

<svg xmlns="http://www.w3.org/2000/svg" xmlns:xlink="http://www.w3.org/1999/xlink" fill="none" viewBox="0 0 24 24"><defs><mask id="a"><path fill="#fff" d="M7.326 16.31a.07.07 0 0 0 .003-.072.07.07 0 0 0-.06-.036H3.258A1.257 1.257 0 0 1 2 14.94l.005-5.853c0-.248.065-.49.188-.705l2.142-3.744A1.27 1.27 0 0 1 5.434 4h13.003a.75.75 0 0 1 .752.774.76.76 0 0 1-.114.38l-1.399 2.242a.222.222 0 0 0 .188.339h3.168a1.11 1.11 0 0 1 1.108 1.11v5.616c0 .628-.159 1.245-.461 1.795-.381.692-1 1.673-1.39 2.381a1.74 1.74 0 0 1-1.518.899H6.568a.754.754 0 0 1-.755-.799.76.76 0 0 1 .13-.383z"/><path fill="#000" d="M9.206 15.72a.79.79 0 0 0-.641.333l-1.652 2.35a.228.228 0 0 0 .185.358H18.49c.42 0 .807-.225 1.016-.59.298-.52.81-1.274 1.116-1.808a.43.43 0 0 0-.37-.643zm-3.211-3.27a1.4 1.4 0 0 0-1.098.539l-1.348 1.729a.439.439 0 0 0 .344.708h3.938a.84.84 0 0 1 .76-.481h7.608c.311 0 .6-.163.763-.429l1.035-1.695a.271.271 0 0 0-.23-.412z"/><path fill="#000" d="M18.088 14.314a.413.413 0 0 0 .35.63h2.207a.64.64 0 0 0 .643-.644V9.14a.63.63 0 0 0-.63-.63h-10.3a1.13 1.13 0 0 0-.953.524c-.365.577-.79 1.496-1.15 2.063a.328.328 0 0 0 .275.503h9.78a.81.81 0 0 1 .813.835.8.8 0 0 1-.123.41z"/><path fill="#000" d="M16.29 7.735a.25.25 0 0 0 .21-.114l1.462-2.247a.286.286 0 0 0-.238-.44H6.581a1.2 1.2 0 0 0-1.108.742 1.2 1.2 0 0 0-.092.46v4.255a1.23 1.23 0 0 0 .795 1.147c.155.058.32.084.486.076h.157c.004-.034 1.27-2.225 1.969-3.299a1.28 1.28 0 0 1 1.07-.58z"/></mask></defs><g mask="url(#a)"><path fill="#ff7043" d="M7.326 16.31a.07.07 0 0 0 .003-.072.07.07 0 0 0-.06-.036H3.258A1.257 1.257 0 0 1 2 14.94l.005-5.853c0-.248.065-.49.188-.705l2.142-3.744A1.27 1.27 0 0 1 5.434 4h13.003a.75.75 0 0 1 .752.774.76.76 0 0 1-.114.38l-1.399 2.242a.222.222 0 0 0 .188.339h3.168a1.11 1.11 0 0 1 1.108 1.11v5.616c0 .628-.159 1.245-.461 1.795-.381.692-1 1.673-1.39 2.381a1.74 1.74 0 0 1-1.518.899H6.568a.754.754 0 0 1-.755-.799.76.76 0 0 1 .13-.383z" data-iconColor="SST"/><path fill="#fafafa" d="M9.206 15.72a.79.79 0 0 0-.641.333l-1.652 2.35a.228.228 0 0 0 .185.358H18.49c.42 0 .807-.225 1.016-.59.298-.52.81-1.274 1.116-1.808a.43.43 0 0 0-.37-.643zm-3.211-3.27a1.4 1.4 0 0 0-1.098.539l-1.348 1.729a.439.439 0 0 0 .344.708h3.938a.84.84 0 0 1 .76-.481h7.608c.311 0 .6-.163.763-.429l1.035-1.695a.271.271 0 0 0-.23-.412z"/><path fill="#fafafa" d="M18.088 14.314a.413.413 0 0 0 .35.63h2.207a.64.64 0 0 0 .643-.644V9.14a.63.63 0 0 0-.63-.63h-10.3a1.13 1.13 0 0 0-.953.524c-.365.577-.79 1.496-1.15 2.063a.328.328 0 0 0 .275.503h9.78a.81.81 0 0 1 .813.835.8.8 0 0 1-.123.41z"/><path fill="#fafafa" d="M16.29 7.735a.25.25 0 0 0 .21-.114l1.462-2.247a.286.286 0 0 0-.238-.44H6.581a1.2 1.2 0 0 0-1.108.742 1.2 1.2 0 0 0-.092.46v4.255a1.23 1.23 0 0 0 .795 1.147c.155.058.32.084.486.076h.157c.004-.034 1.27-2.225 1.969-3.299a1.28 1.28 0 0 1 1.07-.58z"/></g></svg>
